src/assets/threecoins.svg

<svg xmlns="http://www.w3.org/2000/svg" width="1625" height="2024" fill="none" viewBox="0 0 1625 2024">
    <path fill="#d3f0ff" stroke="#7f42e1" stroke-linecap="round" stroke-linejoin="round" stroke-width="22" d="M1353.86 1602.87s43.7 33.47 66.4 50.87c193.6 148.28 198.82 466.58 11.67 710.91-187.15 244.34-495.797 322.18-689.394 173.89l-66.403-50.86c-131.834-163.15 485.897-969.62 677.727-884.81"/>
    <path fill="#fff" stroke="#7f42e1" stroke-linecap="round" stroke-linejoin="round" stroke-width="22" d="M1353.86 1602.87c-193.6-148.29-502.259-70.42-689.415 173.91-187.155 244.34-181.932 562.63 11.667 710.92s502.258 70.43 689.418-173.91 181.93-562.63-11.67-710.92"/>
    <path fill="#fff" stroke="#7f42e1" stroke-linecap="round" stroke-linejoin="round" stroke-width="22" d="M1303.31 1668.67c-160.28-122.77-419.349-53.72-578.639 154.24-159.289 207.96-158.483 476.07 1.801 598.84 160.284 122.78 419.348 53.72 578.638-154.24s158.48-476.07-1.8-598.84"/>
    <path stroke="#7f42e1" stroke-linecap="round" stroke-linejoin="round" stroke-width="22" d="m1558.34 1879.32-66.41-50.86"/>
    <path fill="#d3f0ff" stroke="#7f42e1" stroke-linecap="round" stroke-linejoin="round" stroke-width="22" d="m1210.75 1661.07-91.27 75.23c-110.58 91.15-358.916-27.52-554.669-265.01S299.976 967.385 410.56 876.235l91.267-75.228c120.007 27.692 719.243 735.293 708.923 860.063"/>
    <path fill="#fff" stroke="#7f42e1" stroke-linecap="round" stroke-linejoin="round" stroke-width="22" d="M1210.75 1661.07c110.57-91.14 41.51-357.56-154.25-595.06-195.767-237.497-444.1-356.144-554.672-265.003s-41.512 357.553 154.251 595.053c195.762 237.5 444.091 356.15 554.671 265.01"/>
    <path fill="#fff" stroke="#7f42e1" stroke-linecap="round" stroke-linejoin="round" stroke-width="22" d="M1160.68 1600.29c80.58-66.42 9.75-285.44-158.2-489.19-167.942-203.753-369.41-315.085-449.988-248.667-80.579 66.418-9.753 285.437 158.193 489.187s369.415 315.08 449.995 248.67"/>
    <path stroke="#7f42e1" stroke-linecap="round" stroke-linejoin="round" stroke-width="22" d="m382.92 1153.59 91.267-75.23m36.086 321.49 91.267-75.23m134.89 315.46 91.295-75.25m123.673 191.5 91.272-75.23"/>
    <path fill="#d3f0ff" stroke="#7f42e1" stroke-linecap="round" stroke-linejoin="round" stroke-width="22" d="m1656.25 322.356 68.57 125.971c50.43 92.656-127.82 287.071-398.14 434.217-270.33 147.146-530.348 191.336-580.783 98.685l-66.604-122.357c48.425-99.255 866.457-525.84 976.927-536.499z"/>
    <path stroke="#7f42e1" stroke-linecap="round" stroke-linejoin="round" stroke-width="22" d="m921.35 892.83 66.603 122.36m258.557-91.802L1179.9 801.03m348.07-49.05-66.61-122.357m233.15-45.221-66.61-122.357"/>
    <path fill="#fff" stroke="#7f42e1" stroke-linecap="round" stroke-linejoin="round" stroke-width="22" d="M1658.23 326c-50.44-92.663-310.47-48.495-580.8 98.654-270.323 147.148-448.576 341.554-398.137 434.217s310.473 48.495 580.797-98.653C1530.42 613.07 1708.67 418.664 1658.23 326"/>
    <path fill="#fff" stroke="#7f42e1" stroke-linecap="round" stroke-linejoin="round" stroke-width="22" d="M1589.15 363.802c-33.88-62.236-249.34-10.351-481.26 115.889C875.975 605.93 715.434 758.719 749.311 820.955s249.344 10.35 481.259-115.889c231.91-126.239 392.46-279.029 358.58-341.264"/>
</svg>

<svg width="1625" height="2024" viewBox="0 0 1625 2024" fill="none" xmlns="http://www.w3.org/2000/svg">
<path d="M1353.86 1602.87C1353.86 1602.87 1397.56 1636.34 1420.26 1653.74C1613.86 1802.02 1619.08 2120.32 1431.93 2364.65C1244.78 2608.99 936.133 2686.83 742.536 2538.54L676.133 2487.68C544.299 2324.53 1162.03 1518.06 1353.86 1602.87Z" fill="#D3F0FF" stroke="#7F42E1" stroke-width="22" stroke-linecap="round" stroke-linejoin="round"/>
<path d="M1353.86 1602.87C1160.26 1454.58 851.601 1532.45 664.445 1776.78C477.29 2021.12 482.513 2339.41 676.112 2487.7C869.711 2635.99 1178.37 2558.13 1365.53 2313.79C1552.69 2069.45 1547.46 1751.16 1353.86 1602.87Z" fill="white" stroke="#7F42E1" stroke-width="22" stroke-linecap="round" stroke-linejoin="round"/>
<path d="M1303.31 1668.67C1143.03 1545.9 883.961 1614.95 724.671 1822.91C565.382 2030.87 566.188 2298.98 726.472 2421.75C886.756 2544.53 1145.82 2475.47 1305.11 2267.51C1464.4 2059.55 1463.59 1791.44 1303.31 1668.67Z" fill="white" stroke="#7F42E1" stroke-width="22" stroke-linecap="round" stroke-linejoin="round"/>
<path d="M1558.34 1879.32L1491.93 1828.46" stroke="#7F42E1" stroke-width="22" stroke-linecap="round" stroke-linejoin="round"/>
<path d="M1210.75 1661.07L1119.48 1736.3C1008.9 1827.45 760.564 1708.78 564.811 1471.29C369.059 1233.8 299.976 967.385 410.56 876.235L501.827 801.007C621.834 828.699 1221.07 1536.3 1210.75 1661.07Z" fill="#D3F0FF" stroke="#7F42E1" stroke-width="22" stroke-linecap="round" stroke-linejoin="round"/>
<path d="M1210.75 1661.07C1321.32 1569.93 1252.26 1303.51 1056.5 1066.01C860.733 828.513 612.4 709.866 501.828 801.007C391.256 892.148 460.316 1158.56 656.079 1396.06C851.841 1633.56 1100.17 1752.21 1210.75 1661.07Z" fill="white" stroke="#7F42E1" stroke-width="22" stroke-linecap="round" stroke-linejoin="round"/>
<path d="M1160.68 1600.29C1241.26 1533.87 1170.43 1314.85 1002.48 1111.1C834.538 907.347 633.07 796.015 552.492 862.433C471.913 928.851 542.739 1147.87 710.685 1351.62C878.631 1555.37 1080.1 1666.7 1160.68 1600.29Z" fill="white" stroke="#7F42E1" stroke-width="22" stroke-linecap="round" stroke-linejoin="round"/>
<path d="M382.92 1153.59L474.187 1078.36" stroke="#7F42E1" stroke-width="22" stroke-linecap="round" stroke-linejoin="round"/>
<path d="M510.273 1399.85L601.54 1324.62" stroke="#7F42E1" stroke-width="22" stroke-linecap="round" stroke-linejoin="round"/>
<path d="M736.43 1640.08L827.725 1564.83" stroke="#7F42E1" stroke-width="22" stroke-linecap="round" stroke-linejoin="round"/>
<path d="M951.398 1756.33L1042.67 1681.1" stroke="#7F42E1" stroke-width="22" stroke-linecap="round" stroke-linejoin="round"/>
<path d="M1656.25 322.356L1724.82 448.327C1775.25 540.983 1597 735.398 1326.68 882.544C1056.35 1029.69 796.332 1073.88 745.897 981.229L679.293 858.872C727.718 759.617 1545.75 333.032 1656.22 322.373L1656.25 322.356Z" fill="#D3F0FF" stroke="#7F42E1" stroke-width="22" stroke-linecap="round" stroke-linejoin="round"/>
<path d="M921.35 892.83L987.953 1015.19" stroke="#7F42E1" stroke-width="22" stroke-linecap="round" stroke-linejoin="round"/>
<path d="M1246.51 923.388L1179.9 801.03" stroke="#7F42E1" stroke-width="22" stroke-linecap="round" stroke-linejoin="round"/>
<path d="M1527.97 751.98L1461.36 629.623" stroke="#7F42E1" stroke-width="22" stroke-linecap="round" stroke-linejoin="round"/>
<path d="M1694.51 584.402L1627.9 462.045" stroke="#7F42E1" stroke-width="22" stroke-linecap="round" stroke-linejoin="round"/>
<path d="M1658.23 326C1607.79 233.337 1347.76 277.505 1077.43 424.654C807.107 571.802 628.854 766.208 679.293 858.871C729.733 951.534 989.766 907.366 1260.09 760.218C1530.42 613.07 1708.67 418.664 1658.23 326Z" fill="white" stroke="#7F42E1" stroke-width="22" stroke-linecap="round" stroke-linejoin="round"/>
<path d="M1589.15 363.802C1555.27 301.566 1339.81 353.451 1107.89 479.691C875.975 605.93 715.434 758.719 749.311 820.955C783.188 883.191 998.655 831.305 1230.57 705.066C1462.48 578.827 1623.03 426.037 1589.15 363.802Z" fill="white" stroke="#7F42E1" stroke-width="22" stroke-linecap="round" stroke-linejoin="round"/>
</svg>
